dist/svgs/unicons/line/wheelchair-alt.svg

<svg xmlns="http://www.w3.org/2000/svg" data-name="Layer 1" viewBox="0 0 24 24"><path d="M20 16.18V16a3 3 0 00-2-2.82V7h1a1 1 0 000-2H7a3 3 0 00-3-3H3a1 1 0 000 2h1a1 1 0 011 1v7.42A5 5 0 1012 17a4.94 4.94 0 00-.42-2H17a1 1 0 011 1v.18a3 3 0 102 0zM7 20a3 3 0 113-3 3 3 0 01-3 3zm9-7h-6a4.93 4.93 0 00-3-1v-1h9zm0-4H7V7h9zm3 11a1 1 0 111-1 1 1 0 01-1 1zM7 16a1 1 0 101 1 1 1 0 00-1-1z"/></svg>

<svg xmlns="http://www.w3.org/2000/svg" data-name="Layer 1" viewBox="0 0 24 24"><path d="M20,16.18V16a3,3,0,0,0-2-2.82V7h1a1,1,0,0,0,0-2H7A3,3,0,0,0,4,2H3A1,1,0,0,0,3,4H4A1,1,0,0,1,5,5v7.42A5,5,0,1,0,12,17a4.94,4.94,0,0,0-.42-2H17a1,1,0,0,1,1,1v.18a3,3,0,1,0,2,0ZM7,20a3,3,0,1,1,3-3A3,3,0,0,1,7,20Zm9-7H10a4.93,4.93,0,0,0-3-1V11h9Zm0-4H7V7h9Zm3,11a1,1,0,1,1,1-1A1,1,0,0,1,19,20ZM7,16a1,1,0,1,0,1,1A1,1,0,0,0,7,16Z"/></svg>
